icons/ArrowUpRight.svg

<svg width="24" height="24" viewBox="0 0 24 24" fill="none" xmlns="http://www.w3.org/2000/svg">
<path fill-rule="evenodd" clip-rule="evenodd" d="M18.2271,4.27787c0.4142,0 0.75,0.33579 0.75,0.75v11.31373c0,0.4142 -0.3358,0.75 -0.75,0.75c-0.4142,0 -0.75,-0.3358 -0.75,-0.75v-9.50307l-11.91901,11.91897c-0.2929,0.2929 -0.76777,0.2929 -1.06066,0c-0.2929,-0.2929 -0.2929,-0.7677 0,-1.0606l11.91897,-11.91903h-9.50303c-0.41421,0 -0.75,-0.33578 -0.75,-0.75c0,-0.41421 0.33579,-0.75 0.75,-0.75z" fill="#002B51"/>
</svg>

<svg width="24" height="24" viewBox="0 0 24 24" fill="none" xmlns="http://www.w3.org/2000/svg">
<path fill-rule="evenodd" clip-rule="evenodd" d="M18.2271 4.27787C18.6413 4.27787 18.9771 4.61366 18.9771 5.02787V16.3416C18.9771 16.7558 18.6413 17.0916 18.2271 17.0916C17.8129 17.0916 17.4771 16.7558 17.4771 16.3416V6.83853L5.55809 18.7575C5.26519 19.0504 4.79032 19.0504 4.49743 18.7575C4.20453 18.4646 4.20453 17.9898 4.49743 17.6969L16.4164 5.77787H6.91337C6.49916 5.77787 6.16337 5.44209 6.16337 5.02787C6.16337 4.61366 6.49916 4.27787 6.91337 4.27787H18.2271Z" fill="#002B51"/>
</svg>
